X: 46
T:Italian (?) Jig
M:6/8
L:1/8
S:Eurojam
R:Jig
Z:Steve Mansfield
K:G
G2A | B2B ABA | GAG GAB | c2c edc | B2A G3 | Bcd ^cde | d^cd FGA |
BAG FGE |1D3 :|2 D6 |: d2d ded | ^c3 A2B | cBc edc |
B2A G3 | dBG dBG | ecA Ace | ded cBA |1 A3 G3 :|2 G3 ||

